usr/share/icons/biglinux-icons-material/22/actions/kr_syncbrowse_off.svg

<svg xmlns="http://www.w3.org/2000/svg" viewBox="0 0 22 22">
  <defs id="defs3051">
    <style type="text/css" id="current-color-scheme">
      .ColorScheme-Text {
        color:#dedede;
      }
      </style>
  </defs>
 <path 
     style="fill:currentColor;fill-opacity:1;stroke:none" 
     d="M 3 3 L 3 4 L 3 19 L 4 19 L 13 19 L 13 18 L 4 18 L 4 10 L 7 10 L 7 9.9902344 L 7.0078125 10 L 9.0078125 8 L 18 8 L 18 13 L 19 13 L 19 5 L 12.007812 5 L 10.007812 3 L 10 3.0097656 L 10 3 L 4 3 L 3 3 z "
     class="ColorScheme-Text"
     />
    <path
     style="fill:#2ecc71;fill-opacity:1;stroke:none"
     d="M 16.5 14 C 15.115 14 14 15.115 14 16.5 C 14 16.9334 14.118052 17.334753 14.310547 17.689453 L 15.070312 16.929688 C 15.029288 16.792588 15 16.6508 15 16.5 C 15 15.669 15.669 15 16.5 15 C 16.650791 15 16.792594 15.029313 16.929688 15.070312 L 17.689453 14.310547 C 17.334808 14.118147 16.933427 14 16.5 14 z M 18.689453 15.310547 L 17.929688 16.070312 C 17.970717 16.207412 18 16.3492 18 16.5 C 18 17.331 17.331 18 16.5 18 C 16.349209 18 16.207406 17.970687 16.070312 17.929688 L 15.310547 18.689453 C 15.665192 18.881853 16.066573 19 16.5 19 C 17.885 19 19 17.885 19 16.5 C 19 16.0666 18.881948 15.665247 18.689453 15.310547 z "
     />
</svg>

<svg xmlns="http://www.w3.org/2000/svg" viewBox="0 0 22 22"><path d="M3 3v16h10v-1H4v-8h3v-.01l.008.01 2-2H18v5h1V5h-6.992l-2-2-.008.01V3H3z" style="fill:currentColor;fill-opacity:1;stroke:none;color:#dedede"/><path d="M16.5 14a2.495 2.495 0 0 0-2.5 2.5c0 .433.118.835.31 1.19l.76-.76a1.488 1.488 0 0 1-.07-.43c0-.831.669-1.5 1.5-1.5.15 0 .293.03.43.07l.76-.76A2.483 2.483 0 0 0 16.5 14zm2.19 1.31-.76.76c.04.137.07.28.07.43 0 .831-.669 1.5-1.5 1.5-.15 0-.293-.03-.43-.07l-.76.76c.355.192.757.31 1.19.31 1.385 0 2.5-1.115 2.5-2.5 0-.433-.118-.835-.31-1.19z" style="fill:#2ecc71;fill-opacity:1;stroke:none"/></svg>
